svgs/sharp-solid/people-robbery.svg

<svg xmlns="http://www.w3.org/2000/svg" viewBox="0 0 576 512"><!--! Font Awesome Pro 6.6.0 by @fontawesome - https://fontawesome.com License - https://fontawesome.com/license (Commercial License) Copyright 2024 Fonticons, Inc. --><path d="M80 96A48 48 0 1 0 80 0a48 48 0 1 0 0 96zM40 128L8 128l0 32L8 288l0 32s0 0 0 0L8 480l0 32 64 0 0-32 0-128 16 0 0 128 0 32 64 0 0-32 0-227.3 13 20.5 9.4 14.9 17.6 0 48 0 32 0 0-64-32 0-30.4 0-51.5-81.1L148.7 128l-17.6 0L40 128zM400 96a48 48 0 1 0 0-96 48 48 0 1 0 0 96zM273.1 168.2l6.3 23.8 24.6 0 24 0 0 288 0 32 64 0 0-32 0-128 16 0 0 128 0 32 64 0 0-32 0-288 24 0 24.6 0 6.3-23.8 32-120 8.2-30.9L505.3 .8l-8.2 30.9L471.4 128 408 128s0 0 0 0l-16 0s0 0 0 0l-63.4 0L302.9 31.8 294.7 .8 232.8 17.3l8.2 30.9 32 120z"/></svg>

<svg xmlns="http://www.w3.org/2000/svg" viewBox="0 0 576 512"><!--! Font Awesome Pro 6.4.2 by @fontawesome - https://fontawesome.com License - https://fontawesome.com/license (Commercial License) Copyright 2023 Fonticons, Inc. --><path d="M80 96A48 48 0 1 0 80 0a48 48 0 1 0 0 96zM40 128H8v32V288v32H8V480v32H72V480 352H88V480v32h64V480 252.7l13 20.5 9.4 14.9H192h48 32V224H240 209.6l-51.5-81.1L148.7 128H131.1 40zM400 96a48 48 0 1 0 0-96 48 48 0 1 0 0 96zM273.1 168.2l6.3 23.8H304h24V480v32h64V480 352h16V480v32h64V480 192h24 24.6l6.3-23.8 32-120 8.2-30.9L505.3 .8l-8.2 30.9L471.4 128H408v0H392v0H328.6L302.9 31.8 294.7 .8 232.8 17.3l8.2 30.9 32 120z"/></svg>
